X: 7
T:Willow Tree, The
M:4/4
L:1/8
S:Miss Lucy Ray
R:Air
K:F
"Andante"A2|G3 F D2 D2|F3 G A2 A2|G3 F D2 C2|D4-D2 A2|
G3 F D2 D2|F3 G A2 A2|G2 F2 D2 C2|D4-D2||
A2|c3 G A2 d2|c3 G A2 d2|c2 A2 G2 F2|G4 z2 A2|
G3 F D2 D2|F3 G A2 A2|G2 F2 D2 C2|D4-D2||

